X:1
T:Pil\'e de Qu\'evert
G:Skol Al Louarn
R:Pil\'e de Qu\'evert
C:Traditionnel, arrangement Ronan Keryell http://kazimodal.trad.org
Q:C2=130
P:A5
M:4/4
K:G
P:A
|: "Bm"d>B "Em"d>B "G"d>B "Em"B2 |1 "Am"AA/2A/2 A"C"c B"D"A B"G"G :|2\
	"Am"AA/2A/2 A"C"c B"D"A "G"G2 ||
|: "Am"AA/2A/2 A"Bm"B/2A/2 GA "Em"BG | "Am"AA/2A/2 A"C"c B"D"A "G"G2 :|
